X:0531
M:2/4
L:1/16
Q:1/4=112
K:C
    c2ce d2df|e2g2 g4  |e2g2 (agf).e|Te4    d4 ::
    e2eg d2df|e2eg d2df|e2g2  agfe  |(dcd)e d2d2|
    e2eg d2df|e2eg d2df|egec  dfdB  | c4    c4 :|

